X:1
T:La Dr\^olette
G:Skol Al Louarn
R:Dr\^olette
C:Traditionnel, arrangement Ronan Keryell http://kazimodal.trad.org
Q:C2=120
P:A5
M:4/4
K:G
P:A
"G"DD G2 "Em"B>A GF | ED "C"G2 "D"B>A "G"G2 |\
"Am"AA A2 "Bm"B2 "C"cB | AG "D"F2 E2 "Bm"D2 |
|: "G"G/2A/2B/2A/2 "Em"G/2A/2B/2A/2 "C"GB "D"BA |1\
 "G"G/2A/2B/2A/2 "Am"G/2A/2B/2A/2 "Bm"GA "C"A2 :|2\
"Em"GA "C"B2 "D"A2 "G"G2 ||
